webapp/src/assets/icons/cloudproviders/aws/security_identify_compliance/permissions.svg

<?xml version="1.0" encoding="UTF-8"?>
<svg width="48px" height="48px" viewBox="0 0 48 48" version="1.1" xmlns="http://www.w3.org/2000/svg" xmlns:xlink="http://www.w3.org/1999/xlink">
    <title>Icon-Resource/Security-Identity-and-Compliance/Res_AWS-Identity-Access-Management_Permissions_48</title>
    <g id="Icon-Resource/Security-Identity-and-Compliance/Res_AWS-Identity-Access-Management_Permissions_48" stroke="none" stroke-width="1" fill="none" fill-rule="evenodd">
        <path d="M20.2899,18.04 L21.7039,19.454 L14.7059,26.452 C14.5109,26.647 14.2549,26.745 13.9989,26.745 C13.7429,26.745 13.4869,26.647 13.2919,26.452 L9.7919,22.953 L11.2059,21.539 L13.9989,24.331 L20.2899,18.04 Z M20.2899,6.667 L21.7039,8.081 L14.7059,15.079 C14.5109,15.274 14.2549,15.372 13.9989,15.372 C13.7429,15.372 13.4869,15.274 13.2919,15.079 L9.7919,11.58 L11.2059,10.166 L13.9989,12.958 L20.2899,6.667 Z M19.9549,32.576 L16.7259,35.806 L19.9549,39.035 L18.5409,40.449 L15.3109,37.22 L12.0809,40.449 L10.6669,39.035 L13.8969,35.806 L10.6669,32.576 L12.0809,31.162 L15.3109,34.392 L18.5409,31.162 L19.9549,32.576 Z M39.2429,43.186 C39.2429,43.63 38.8819,43.991 38.4379,43.991 L8.8059,43.991 C8.3609,43.991 7.9999,43.63 7.9999,43.186 L7.9999,4.806 C7.9999,4.361 8.3609,4 8.8059,4 L38.4379,4 C38.8819,4 39.2429,4.361 39.2429,4.806 L39.2429,43.186 Z M38.4379,2 L8.8059,2 C7.2589,2 5.9999,3.259 5.9999,4.806 L5.9999,43.186 C5.9999,44.732 7.2589,45.991 8.8059,45.991 L38.4379,45.991 C39.9849,45.991 41.2429,44.732 41.2429,43.186 L41.2429,4.806 C41.2429,3.259 39.9849,2 38.4379,2 L38.4379,2 Z" id="AWS-Identity-and-Access-Management_Permissions_Resource-Icon_light-bg" fill="#DD344C"></path>
    </g>
</svg>

<svg width="48" height="48" xmlns="http://www.w3.org/2000/svg"><path d="m20.29 18.04 1.414 1.414-6.998 6.998a.997.997 0 0 1-1.414 0l-3.5-3.499 1.414-1.414 2.793 2.792 6.29-6.291Zm0-11.373 1.414 1.414-6.998 6.998a.997.997 0 0 1-1.414 0l-3.5-3.499 1.414-1.414 2.793 2.792 6.29-6.291Zm-.335 25.909-3.23 3.23 3.23 3.229-1.414 1.414-3.23-3.229-3.23 3.229-1.414-1.414 3.23-3.229-3.23-3.23 1.414-1.414 3.23 3.23 3.23-3.23 1.414 1.414Zm19.288 10.61a.806.806 0 0 1-.805.805H8.806A.806.806 0 0 1 8 43.186V4.806C8 4.361 8.36 4 8.806 4h29.632c.444 0 .805.361.805.806v38.38ZM38.438 2H8.806A2.81 2.81 0 0 0 6 4.806v38.38a2.81 2.81 0 0 0 2.806 2.805h29.632a2.808 2.808 0 0 0 2.805-2.805V4.806A2.809 2.809 0 0 0 38.438 2Z" fill="#DD344C" fill-rule="evenodd"/></svg>
